!! 00000] TT[00
!!!OTL: Nongfu da tu
!!!ARE: Heilongjiang
!! Ethnic Group: Dawo'er
!! Zhongguo Minge Jing Xuan, 271
!!!SCT: C1167
!!!YEM: Copyright 1995, estate of Helmut Schaffrath.
**kern
*ICvox
*Ivox
*M2/4
*k[f#]
*G:
{8ee
16ee
16gg
8ee
8dd
=1
8ee
16ee
16gg
8ee
8dd
=2
8b
16dd
16ee
8.b
16a
=3
8.a
16g
4e}
=4
{8e
8a
8a
8a
=5
8a
8b
8.dd
16ee
=6
8b
8dd
8b
8a
=7
8.a
16g
4e}
==
!!!AGN: Xiaodiao
!!!ONB: ESAC (Essen Associative Code) Database: CHINA_030
!!!AMT: simple duple
!!!AIN: vox
!!!EED: Helmut Schaffrath
!!!EEV: 1.0
*-
